mimes/scalable/libreoffice-oasis-formula.svg

<?xml version="1.0" encoding="UTF-8" standalone="no"?>
<svg
   xmlns:dc="http://purl.org/dc/elements/1.1/"
   xmlns:cc="http://creativecommons.org/ns#"
   xmlns:rdf="http://www.w3.org/1999/02/22-rdf-syntax-ns#"
   xmlns:svg="http://www.w3.org/2000/svg"
   xmlns="http://www.w3.org/2000/svg"
   xmlns:xlink="http://www.w3.org/1999/xlink"
   xmlns:sodipodi="http://sodipodi.sourceforge.net/DTD/sodipodi-0.dtd"
   xmlns:inkscape="http://www.inkscape.org/namespaces/inkscape"
   width="48"
   height="48"
   viewBox="0 0 12.7 12.7"
   version="1.1"
   id="svg4"
   sodipodi:docname="libreoffice-oasis-formula.svg"
   inkscape:version="0.92.3 (2405546, 2018-03-11)">
  <metadata
     id="metadata10">
    <rdf:RDF>
      <cc:Work
         rdf:about="">
        <dc:format>image/svg+xml</dc:format>
        <dc:type
           rdf:resource="http://purl.org/dc/dcmitype/StillImage" />
        <dc:title></dc:title>
      </cc:Work>
    </rdf:RDF>
  </metadata>
  <defs
     id="defs8">
    <linearGradient
       id="a"
       gradientUnits="userSpaceOnUse"
       x1="231.06793"
       x2="23.92841"
       xlink:href="#b"
       y1="257.1384"
       y2="1.66572"
       gradientTransform="matrix(0.04992149,0,0,0.04992149,4.3408609,-4.7796171)" />
    <linearGradient
       id="b">
      <stop
         offset="0"
         stop-color="#535353"
         id="stop3" />
      <stop
         offset="1"
         stop-color="#7e7e7e"
         id="stop5" />
    </linearGradient>
    <linearGradient
       id="a-3"
       gradientUnits="userSpaceOnUse"
       x1="231.06793"
       x2="23.92841"
       xlink:href="#b"
       y1="257.1384"
       y2="1.66572"
       gradientTransform="matrix(0.05491363,0,0,0.05491363,-0.45929005,-1.3216528)" />
  </defs>
  <sodipodi:namedview
     pagecolor="#ffffff"
     bordercolor="#666666"
     borderopacity="1"
     objecttolerance="10"
     gridtolerance="10"
     guidetolerance="10"
     inkscape:pageopacity="0"
     inkscape:pageshadow="2"
     inkscape:window-width="1366"
     inkscape:window-height="715"
     id="namedview6"
     showgrid="false"
     showguides="true"
     inkscape:guide-bbox="true"
     inkscape:snap-global="true"
     inkscape:zoom="10.979167"
     inkscape:cx="23.999999"
     inkscape:cy="23.999999"
     inkscape:window-x="0"
     inkscape:window-y="27"
     inkscape:window-maximized="1"
     inkscape:current-layer="svg4" />
  <path
     inkscape:connector-curvature="0"
     style="opacity:1;fill:#8d5fd3;fill-opacity:1;fill-rule:nonzero;stroke:none;stroke-width:0.50711805;stroke-linecap:round;stroke-linejoin:bevel;stroke-miterlimit:4;stroke-dasharray:none;stroke-opacity:1"
     d="m 7.4452731,0.01688326 c -0.040983,0 -0.078161,0.0127642 -0.1049033,0.0330729 -0.025929,0.0196897 -0.041407,0.047003 -0.042375,0.0769979 0.1425477,0.0568061 0.2716984,0.13629486 0.3782716,0.24236248 0.1894734,0.18857428 0.312955,0.44366748 0.3302125,0.73018816 h 0.00672 v 0.068213 0.1441772 0.1369425 0.1927531 c 0,0.2812905 0.2266883,0.5079794 0.5079795,0.5079794 h 0.1183391 l -5.291e-4,0.00568 h 1.6924026 c 0.329951,0 0.613684,0.1491999 0.819072,0.3731038 V 1.1020885 0.5248626 c 0,-0.14064565 -0.05654,-0.26789289 -0.148312,-0.35966798 -0.09178,-0.0917751 -0.219024,-0.14831136 -0.35967,-0.14831136 H 9.1423149 7.8824437 Z"
     id="path965" />
  <path
     style="opacity:1;fill:#333333;fill-opacity:1;fill-rule:nonzero;stroke:none;stroke-width:0.50711805;stroke-linecap:round;stroke-linejoin:bevel;stroke-miterlimit:4;stroke-dasharray:none;stroke-opacity:1"
     d="m 2.9460732,0.60831414 c -0.6285519,0 -1.134298,0.50626306 -1.134298,1.13481456 v 9.9012043 c 0,0.628551 0.5057461,1.134814 1.134298,1.134814 h 4.2855261 2.522327 c 0.6285527,0 1.1342987,-0.506263 1.1342987,-1.134814 V 3.7290541 h -0.01292 C 10.810197,3.1632601 10.337709,2.7249809 9.7539263,2.7249809 h -1.692403 v 0 l -0.11781,-0.00568 C 7.6627483,2.7057546 7.4357343,2.4926122 7.4357343,2.2113215 V 2.018564 1.8816215 1.7374442 1.6692313 h -0.0067 C 7.3941823,1.0908651 6.9321933,0.6367337 6.3510473,0.61089793 l -5.29e-4,-0.002585 h -0.02015 z"
     id="path833"
     inkscape:connector-curvature="0" />
  <path
     style="opacity:1;fill:#cccccc;fill-opacity:1;fill-rule:nonzero;stroke:none;stroke-width:0.50711805;stroke-linecap:round;stroke-linejoin:bevel;stroke-miterlimit:4;stroke-dasharray:none;stroke-opacity:1"
     d="m 6.4269983,1.1354138 c 0.263277,0.019482 0.470254,0.2359637 0.470255,0.504362 v 0.2563151 0.125057 0.092501 c 0,0.5757933 0.427721,1.0388807 0.982369,1.1136271 v 0 l 1.962134,0.026872 c 0.2812647,0.00385 0.5079787,0.2266886 0.5079797,0.5079793 v 2.0835938 5.8962809 c 0,0.281291 -0.226688,0.50798 -0.5079797,0.50798 H 7.2315993 2.8582236 c -0.281291,0 -0.50798,-0.226689 -0.50798,-0.50798 V 1.6454602 c 0,-0.2812907 0.226689,-0.5079794 0.50798,-0.5079794 h 3.5692907 z"
     id="path901-5"
     inkscape:connector-curvature="0" />
  <path
     d="M 5.9636733,4.7736499 4.7960063,7.4957344 4.1044382,6.1459536 3.4395757,6.3990713 3.5577688,6.8106015 3.8781345,6.6427504 4.7007658,8.3980551 H 4.8957519 L 6.2388834,5.2130657 h 2.691838 V 5.4327203 H 9.2604243 V 4.7737571 H 5.9638845 Z M 6.5928194,5.871922 7.5192755,7.1037243 v 0.01566 L 6.5587093,8.3979476 h 0.5446332 l 0.7147371,-0.951443 h 0.017061 l 0.7147292,0.951443 H 9.1398744 L 8.1566791,7.0984685 V 7.0828105 L 9.0602861,5.8720299 H 8.5158663 L 7.8465036,6.7504316 H 7.8294427 L 7.1827075,5.8719222 Z m 0.6187411,3.2104082 c -0.078188,0 -0.1304382,0.011577 -0.1570152,0.034855 -0.026345,0.02284 -0.039545,0.068952 -0.039545,0.138142 V 9.368158 c 0,0.047007 -0.00825,0.079486 -0.025024,0.097278 -0.016444,0.01789 -0.046915,0.026918 -0.091157,0.026918 h -0.029106 v 0.067034 h 0.029106 c 0.043945,0 0.074151,0.00922 0.090838,0.02745 0.016886,0.018106 0.025233,0.050798 0.025233,0.098244 v 0.1124014 c 0,0.06919 0.013254,0.1155065 0.039545,0.1385698 0.026674,0.023265 0.079035,0.034751 0.1570196,0.034751 h 0.030129 v -0.067558 h -0.032945 c -0.043835,0 -0.072622,-0.00678 -0.08602,-0.020396 -0.013144,-0.013493 -0.019744,-0.042598 -0.019744,-0.087413 v -0.11669 c 0,-0.048763 -0.00715,-0.084318 -0.021263,-0.1065021 -0.013915,-0.022283 -0.038555,-0.03766 -0.073249,-0.046119 0.034375,-0.0079 0.058784,-0.022844 0.07282,-0.04526 0.014354,-0.022172 0.021648,-0.057943 0.021648,-0.1071454 V 9.2571428 c 0,-0.044479 0.00649,-0.073475 0.019744,-0.086983 0.013475,-0.013723 0.042075,-0.020708 0.08602,-0.020708 H 7.24154 V 9.082318 Z m 0.7649309,2.737e-4 v 0.06714 h 0.031834 c 0.044286,0 0.073051,0.00698 0.086548,0.020707 0.013574,0.013834 0.020283,0.04283 0.020283,0.086983 v 0.1165787 c 0,0.049201 0.00715,0.085073 0.021066,0.1070388 0.014465,0.022172 0.038885,0.037352 0.073359,0.04526 -0.034925,0.00834 -0.059092,0.023712 -0.073359,0.046117 -0.014025,0.02195 -0.021066,0.057629 -0.021066,0.1065029 v 0.1165834 c 0,0.044147 -0.00682,0.07315 -0.020283,0.086983 -0.013475,0.013713 -0.042295,0.020717 -0.086548,0.020717 h -0.031834 v 0.067567 h 0.029304 c 0.077979,0 0.1301256,-0.011596 0.1564859,-0.034852 0.026334,-0.023274 0.039545,-0.069383 0.039545,-0.1385726 V 9.6850535 c 0,-0.047339 0.00825,-0.080012 0.024916,-0.098243 0.016895,-0.018106 0.047465,-0.027236 0.091586,-0.027236 h 0.030129 v -0.067278 h -0.030228 c -0.044286,0 -0.074789,-0.00892 -0.091707,-0.026814 -0.016543,-0.017783 -0.024794,-0.050275 -0.024794,-0.097279 v -0.112842 c 0,-0.069191 -0.013266,-0.1153002 -0.039556,-0.1380347 C 8.1358272,9.0941543 8.0836762,9.082575 8.0056875,9.082575 Z m -1.621987,0.096633 v 0.1492868 h -0.140613 v 0.067248 h 0.140613 v 0.2857227 c 0,0.0637 0.013464,0.1085728 0.039985,0.1346034 0.026674,0.025795 0.072479,0.038931 0.1372811,0.038931 h 0.105754 v -0.06919 h -0.097284 c -0.036696,0 -0.062414,-0.00766 -0.07711,-0.023051 -0.014686,-0.01536 -0.022166,-0.042421 -0.022166,-0.081296 V 9.3957672 H 6.6375566 V 9.3284051 H 6.4411624 V 9.1792145 Z M 4.6767413,9.3020273 c -0.063151,0 -0.1120328,0.013827 -0.1460791,0.04129 -0.034158,0.027242 -0.051264,0.06617 -0.051264,0.1166914 0,0.039541 0.011587,0.07121 0.034423,0.09449 0.022843,0.022829 0.059217,0.038913 0.1090772,0.048801 l 0.032389,0.00666 0.00368,0.00105 c 0.076659,0.015362 0.1151896,0.043032 0.1151896,0.083229 0,0.027998 -0.010549,0.049717 -0.031421,0.065423 -0.021088,0.015143 -0.050803,0.022829 -0.089021,0.022829 -0.026363,0 -0.054226,-0.00401 -0.083658,-0.012128 -0.029443,-0.00843 -0.060279,-0.021048 -0.092569,-0.037524 v 0.089242 c 0.033279,0.010982 0.064005,0.018966 0.09256,0.024466 0.028553,0.00559 0.055806,0.00852 0.081834,0.00852 0.065786,0 0.1172186,-0.014557 0.1542303,-0.043862 C 4.8429,9.781893 4.861557,9.741105 4.861557,9.689269 4.861557,9.64995 4.850277,9.618088 4.828093,9.593707 4.806119,9.569205 4.77364,9.553025 4.730808,9.544789 L 4.696056,9.538119 C 4.638724,9.527141 4.602649,9.515857 4.5883715,9.504333 4.5739865,9.4927 4.5667055,9.475067 4.5667055,9.451564 c 0,-0.025912 0.00962,-0.045184 0.028849,-0.057702 0.019332,-0.012844 0.048633,-0.019521 0.08784,-0.019521 0.026142,0 0.051426,0.0038 0.076687,0.011048 0.025043,0.00713 0.049825,0.018101 0.074649,0.03239 V 9.33314 h 2.2e-4 C 4.8096865,9.322701 4.7841865,9.315133 4.7580465,9.310081 4.7322365,9.304711 4.7050855,9.302031 4.6767495,9.302031 Z m 0.551388,0.00172 c -0.063151,0 -0.1131603,0.02459 -0.1494031,0.073791 -0.036351,0.049196 -0.05438,0.1173262 -0.05438,0.204529 -5e-7,0.085445 0.018135,0.1527628 0.054591,0.2016359 0.03657,0.048654 0.086473,0.072825 0.1494034,0.072825 0.031631,0 0.059394,-0.00697 0.083229,-0.020607 0.024097,-0.014245 0.043226,-0.034137 0.057271,-0.06017 v 0.2672638 h 0.086987 V 9.3164715 H 5.3688429 V 9.38372 C 5.3544569,9.357698 5.3351969,9.337925 5.3110339,9.324416 5.2872009,9.310688 5.2596479,9.303822 5.2281269,9.303822 Z m 0.7338269,0.00858 c -0.040975,0 -0.076406,0.00994 -0.1065019,0.030036 -0.029876,0.019761 -0.052118,0.048357 -0.066385,0.085698 V 9.3252263 H 5.702088 V 9.8516252 H 5.78907 V 9.5896145 c 0,-0.063918 0.014355,-0.1127879 0.0429,-0.1466147 0.028435,-0.033828 0.06963,-0.05073 0.123663,-0.05073 0.022825,0 0.043945,0.00325 0.063074,0.00985 0.018975,0.00655 0.037785,0.017098 0.056199,0.031321 V 9.3451788 C 6.05812,9.3338748 6.040278,9.3256708 6.021831,9.3204028 6.003285,9.3150328 5.983386,9.3123528 5.96198,9.3123528 Z m 1.3959041,0.00235 0.1885523,0.2519368 -0.2067904,0.2745675 h 0.099957 L 7.5933823,9.630118 7.7476134,9.8411917 h 0.099957 L 7.6407869,9.5666389 7.8293378,9.3147025 H 7.7320539 L 7.5933823,9.5051919 7.4538465,9.314711 Z m -2.115895,0.062445 c 0.041735,0 0.073293,0.017098 0.09449,0.051588 0.021633,0.034158 0.03239,0.084669 0.03239,0.1513329 0,0.066776 -0.010857,0.1174891 -0.032607,0.1520852 -0.021195,0.034159 -0.05265,0.051158 -0.094383,0.051158 -0.041735,0 -0.073183,-0.016994 -0.09449,-0.051053 -0.020866,-0.034146 -0.031424,-0.084973 -0.031424,-0.151967 l 1.1e-4,-3.493e-4 c 0,-0.066996 0.01056,-0.1177165 0.03142,-0.1517632 0.021304,-0.034151 0.052756,-0.051157 0.09449,-0.051157 z"
     id="path34"
     style="fill:#8d5fd3;stroke-width:0.26458341"
     inkscape:connector-curvature="0" />
</svg>

<?xml version="1.0" encoding="UTF-8" standalone="no"?><svg xmlns:dc="http://purl.org/dc/elements/1.1/" xmlns:cc="http://creativecommons.org/ns#" xmlns:rdf="http://www.w3.org/1999/02/22-rdf-syntax-ns#" xmlns="http://www.w3.org/2000/svg" width="48" height="48" viewBox="0 0 12.7 12.7"><metadata><rdf:RDF><cc:Work><dc:format>image/svg+xml</dc:format><dc:type rdf:resource="http://purl.org/dc/dcmitype/StillImage"/><dc:title/></cc:Work></rdf:RDF></metadata><defs><linearGradient id="a"><stop offset="0" stop-color="#535353"/><stop offset="1" stop-color="#7e7e7e"/></linearGradient></defs><path d="M7.45.02a.17.17 0 0 0-.11.03.1.1 0 0 0-.04.08 1.12 1.12 0 0 1 .7.97h.01v.55c0 .27.23.5.51.5H10.34c.32 0 .6.15.81.38V.52a.5.5 0 0 0-.5-.5H7.87z" fill="#8d5fd3"/><path d="M2.95.6c-.63 0-1.14.51-1.14 1.14v9.9c0 .63.5 1.14 1.14 1.14H9.75c.63 0 1.14-.5 1.14-1.14V3.73h-.01c-.07-.57-.54-1-1.13-1H8.06l-.12-.01a.52.52 0 0 1-.5-.5v-.55h-.01A1.12 1.12 0 0 0 6.35.6h-.02z" fill="#333"/><path d="M6.43 1.14a.5.5 0 0 1 .47.5v.48c0 .57.42 1.03.98 1.1l1.96.03c.28 0 .51.23.51.51v7.99a.5.5 0 0 1-.5.5H2.85a.5.5 0 0 1-.51-.5V1.64c0-.29.23-.51.5-.51h3.58z" fill="#ccc"/><path d="M5.96 4.77L4.8 7.5l-.7-1.35-.66.25.12.41.32-.17.82 1.76h.2L6.24 5.2h2.7v.22h.32v-.66h-3.3zm.63 1.1l.93 1.23v.02L6.56 8.4h.54l.72-.95h.02l.71.95h.59l-.98-1.3v-.02l.9-1.2h-.54l-.67.87h-.02l-.65-.88zm.62 3.21c-.08 0-.13.01-.16.04-.02.02-.03.07-.03.14v.1c0 .06-.01.09-.03.1-.02.02-.05.03-.1.03h-.02v.07h.03c.04 0 .07 0 .09.03.02.01.02.05.02.1v.1c0 .08.02.12.04.15.03.02.08.03.16.03h.03V9.9h-.03c-.05 0-.07 0-.09-.02L7.1 9.8v-.12a.2.2 0 0 0-.02-.1c-.01-.03-.04-.05-.07-.05.03-.01.06-.03.07-.05a.2.2 0 0 0 .02-.1v-.12c0-.05 0-.08.02-.09.02-.01.04-.02.09-.02h.03v-.07zm.77 0v.07H8c.04 0 .07 0 .08.02.02.01.03.04.03.09v.11c0 .05 0 .09.02.11.01.02.04.04.07.05-.04 0-.06.02-.07.04a.2.2 0 0 0-.02.1v.13c0 .04-.01.07-.03.08 0 .02-.04.02-.08.02h-.03v.07H8c.07 0 .13-.01.15-.03.03-.03.04-.07.04-.14v-.11c0-.05.01-.08.03-.1.01-.02.04-.03.09-.03h.03v-.07h-.03c-.05 0-.08 0-.1-.02l-.02-.1v-.11c0-.07-.01-.12-.04-.14-.02-.03-.08-.04-.15-.04zm-1.63.1v.15h-.14v.07h.14v.28c0 .07.02.11.04.14.03.02.08.04.14.04h.1v-.07h-.09c-.04 0-.06-.01-.08-.03l-.02-.08V9.4h.2v-.07h-.2v-.15zm-1.67.12a.23.23 0 0 0-.15.04.14.14 0 0 0-.05.12c0 .04.01.07.03.1l.11.04.04.01c.08.02.11.04.11.08 0 .03 0 .05-.03.07a.15.15 0 0 1-.09.02l-.08-.01a.52.52 0 0 1-.1-.04v.1a.75.75 0 0 0 .18.03c.07 0 .12-.02.16-.05a.15.15 0 0 0 .05-.12.14.14 0 0 0-.03-.1.17.17 0 0 0-.1-.05H4.7a.3.3 0 0 1-.11-.04c-.02 0-.02-.02-.02-.05 0-.02 0-.04.03-.06a.16.16 0 0 1 .08-.02c.03 0 .05 0 .08.02.03 0 .05.01.07.03v-.09a.4.4 0 0 0-.15-.03zm.55 0a.18.18 0 0 0-.15.08.34.34 0 0 0-.06.2c0 .09.02.15.06.2.04.05.09.08.15.08l.08-.02a.15.15 0 0 0 .06-.06v.26h.09v-.72h-.1v.06a.15.15 0 0 0-.05-.06.16.16 0 0 0-.08-.02zm.73.01a.17.17 0 0 0-.17.12v-.1H5.7v.52h.09V9.6c0-.06.01-.11.04-.15.03-.03.07-.05.13-.05a.2.2 0 0 1 .06.01.2.2 0 0 1 .05.03v-.08a.19.19 0 0 0-.05-.03h-.06zm1.4 0l.19.26-.21.27h.1l.15-.21.16.21h.1l-.2-.27.18-.26h-.1l-.14.2-.14-.2zm-2.12.07a.1.1 0 0 1 .1.05c.02.03.03.08.03.15 0 .07-.01.12-.03.15a.1.1 0 0 1-.1.05.1.1 0 0 1-.1-.05.3.3 0 0 1-.02-.15.3.3 0 0 1 .03-.15.1.1 0 0 1 .1-.05z" fill="#8d5fd3"/></svg>
